public/images/logos/lava.svg

<svg fill="none" height="112" viewBox="0 0 112 112" width="112" xmlns="http://www.w3.org/2000/svg"><path d="m37.4302 48.2944-1.8816 9.5424-25.58083-5.152 2.01603-9.5424zm60.4576 38.864h2.6432v9.6544h-2.6432c-12.0288 0-21.5712-10.7968-31.2256-21.8176-3.7632 2.128-7.28 3.2704-10.6624 3.2704s-7.0336-1.12-10.9088-3.3824c-8.5344 8.9152-16.9344 21.952-30.8448 21.952h-2.6432v-9.7888h2.6432c10.2816 0 19.5552-15.1648 27.0816-22.1984h6.272c3.0016 2.3744 5.7792 3.6288 8.4 3.6288 2.6432 0 5.3984-1.12 8.288-3.5168h6.272c7.504 7.0336 16.6656 22.1984 27.328 22.1984zm-54.2976-44.5088-13.0592-22.7136 8.4-4.7712 13.1712 22.5792zm37.9904-22.7136-13.0368 22.7136-8.4-4.8832 13.0368-22.5792zm-5.0176 37.8784-1.8816-9.5424 25.4686-5.152 1.882 9.5424z" fill="#111"/></svg>

<svg width="112" height="112" viewBox="0 0 112 112" fill="none" xmlns="http://www.w3.org/2000/svg">
<path d="M37.4302 48.2944L35.5486 57.8368L9.96777 52.6848L11.9838 43.1424L37.4302 48.2944ZM97.8878 87.1584H100.531V96.8128H97.8878C85.859 96.8128 76.3166 86.016 66.6622 74.9952C62.899 77.1232 59.3822 78.2656 55.9998 78.2656C52.6174 78.2656 48.9662 77.1456 45.091 74.8832C36.5566 83.7984 28.1566 96.8352 14.2462 96.8352H11.603V87.0464H14.2462C24.5278 87.0464 33.8014 71.8816 41.3278 64.848H47.5998C50.6014 67.2224 53.379 68.4768 55.9998 68.4768C58.643 68.4768 61.3982 67.3568 64.2878 64.96H70.5598C78.0638 71.9936 87.2254 87.1584 97.8878 87.1584ZM43.5902 42.6496L30.531 19.936L38.931 15.1648L52.1022 37.744L43.5902 42.6496ZM81.5806 19.936L68.5438 42.6496L60.1438 37.7664L73.1806 15.1872L81.5806 19.936ZM76.563 57.8144L74.6814 48.272L100.15 43.12L102.032 52.6624L76.563 57.8144Z" fill="#111111"/>
</svg>
